images/collision_detection/point_circle.svg

<?xml version="1.0" encoding="UTF-8" standalone="no"?>
<svg
   width="448.01645pt"
   height="372.26538pt"
   viewBox="0 0 448.01645 372.26538"
   version="1.1"
   id="svg23"
   sodipodi:docname="point_circle.svg"
   inkscape:version="1.1 (c4e8f9ed74, 2021-05-24)"
   xmlns:inkscape="http://www.inkscape.org/namespaces/inkscape"
   xmlns:sodipodi="http://sodipodi.sourceforge.net/DTD/sodipodi-0.dtd"
   xmlns="http://www.w3.org/2000/svg"
   xmlns:svg="http://www.w3.org/2000/svg">
  <defs
     id="defs27" />
  <sodipodi:namedview
     id="namedview25"
     pagecolor="#ffffff"
     bordercolor="#666666"
     borderopacity="1.0"
     inkscape:pageshadow="2"
     inkscape:pageopacity="0.0"
     inkscape:pagecheckerboard="0"
     inkscape:document-units="pt"
     showgrid="false"
     inkscape:zoom="1.5462466"
     inkscape:cx="290.38058"
     inkscape:cy="247.04985"
     inkscape:window-width="2560"
     inkscape:window-height="1019"
     inkscape:window-x="1920"
     inkscape:window-y="0"
     inkscape:window-maximized="1"
     inkscape:current-layer="svg23" />
  <g
     id="surface1"
     transform="translate(-0.00207253,-0.73254123)">
    <path
       style="fill:#ffffff;fill-opacity:1;fill-rule:nonzero;stroke:none"
       d="m 328.72656,208.11719 c 0,90.48828 -73.35547,163.84375 -163.84375,163.84375 -90.488279,0 -163.843748,-73.35547 -163.843748,-163.84375 0,-90.48828 73.355469,-163.843752 163.843748,-163.843752 90.48828,0 163.84375,73.355472 163.84375,163.843752"
       id="path2" />
    <path
       style="fill:none;stroke:#000000;stroke-width:20.7398;stroke-linecap:butt;stroke-linejoin:miter;stroke-miterlimit:10;stroke-opacity:1"
       d="m 3287.2656,1648.8281 c 0,-904.88279 -733.5547,-1638.437475 -1638.4375,-1638.437475 -904.88279,0 -1638.437475,733.554685 -1638.437475,1638.437475 0,904.8828 733.554685,1638.4375 1638.437475,1638.4375 904.8828,0 1638.4375,-733.5547 1638.4375,-1638.4375 z m 0,0"
       transform="matrix(0.1,0,0,-0.1,0,373)"
       id="path4" />
    <path
       style="fill:#ff0000;fill-opacity:1;fill-rule:nonzero;stroke:none"
       d="m 172.03516,208.11719 c 0,3.95312 -3.20313,7.15625 -7.15235,7.15625 -3.95312,0 -7.15625,-3.20313 -7.15625,-7.15625 0,-3.94922 3.20313,-7.15235 7.15625,-7.15235 3.94922,0 7.15235,3.20313 7.15235,7.15235"
       id="path6" />
    <path
       style="fill:none;stroke:#ff0000;stroke-width:20.7398;stroke-linecap:butt;stroke-linejoin:miter;stroke-miterlimit:10;stroke-opacity:1"
       d="m 1720.3516,1648.8281 c 0,-39.5312 -32.0313,-71.5625 -71.5235,-71.5625 -39.5312,0 -71.5625,32.0313 -71.5625,71.5625 0,39.4922 32.0313,71.5235 71.5625,71.5235 39.4922,0 71.5235,-32.0313 71.5235,-71.5235 z m 0,0"
       transform="matrix(0.1,0,0,-0.1,0,373)"
       id="path8" />
    <path
       style="fill:#ff0000;fill-opacity:1;fill-rule:nonzero;stroke:none"
       d="m 434.23437,8.925781 c 0,3.953125 -3.20703,7.152344 -7.15625,7.152344 -3.95312,0 -7.15625,-3.199219 -7.15625,-7.152344 0,-3.953125 3.20313,-7.15625 7.15625,-7.15625 3.94922,0 7.15625,3.203125 7.15625,7.15625"
       id="path10" />
    <path
       style="fill:none;stroke:#ff0000;stroke-width:20.7398;stroke-linecap:butt;stroke-linejoin:miter;stroke-miterlimit:10;stroke-opacity:1"
       d="m 4342.3437,3640.7422 c 0,-39.5313 -32.0703,-71.5234 -71.5625,-71.5234 -39.5312,0 -71.5625,31.9921 -71.5625,71.5234 0,39.5312 32.0313,71.5625 71.5625,71.5625 39.4922,0 71.5625,-32.0313 71.5625,-71.5625 z m 0,0"
       transform="matrix(0.1,0,0,-0.1,0,373)"
       id="path12" />
    <path
       style="fill:none;stroke:#b36300;stroke-width:20.7398;stroke-linecap:butt;stroke-linejoin:miter;stroke-miterlimit:10;stroke-opacity:1"
       d="M 1713.4766,1697.9297 4206.1328,3591.6406"
       transform="matrix(0.1,0,0,-0.1,0,373)"
       id="path14" />
    <path
       style="fill:none;stroke:#0000ff;stroke-width:20.7398;stroke-linecap:butt;stroke-linejoin:miter;stroke-miterlimit:10;stroke-opacity:1"
       d="m 1713.4766,1697.9297 1246.3281,946.8359"
       transform="matrix(0.1,0,0,-0.1,0,373)"
       id="path16" />
    <path
       style="fill:#000000;fill-opacity:1;fill-rule:nonzero;stroke:none"
       d="m 238.0625,132.94531 c -0.22656,-0.11719 -0.48047,-0.20312 -0.75,-0.25781 -0.27344,-0.0547 -0.57031,-0.0859 -0.89844,-0.0859 -1.16015,0 -2.05078,0.375 -2.67187,1.125 -0.6211,0.75 -0.92969,1.82422 -0.92969,3.22656 v 6.64063 H 230.75 v -12.53516 h 2.0625 v 1.88672 c 0.42969,-0.7539 0.99219,-1.3125 1.67969,-1.67969 0.69531,-0.36718 1.53515,-0.55078 2.52343,-0.55078 0.14063,0 0.29688,0.0156 0.46485,0.043 0.17187,0.0273 0.36328,0.0703 0.57422,0.12891 l 0.008,2.05859"
       id="path18" />
    <path
       style="fill:#000000;fill-opacity:1;fill-rule:nonzero;stroke:none"
       d="m 362.56641,39.085938 -4.51954,6.101562 4.75391,6.433594 h -2.42187 l -3.63282,-4.921875 -3.63672,4.921875 h -2.42187 l 4.85156,-6.554688 -4.4375,-5.980468 h 2.42188 l 3.30859,4.464843 3.3125,-4.464843 h 2.42188"
       id="path20" />
  </g>
  <path
     style="fill:none;stroke:#ff0000;stroke-width:2.99659;stroke-linecap:butt;stroke-linejoin:miter;stroke-miterlimit:4;stroke-dasharray:none;stroke-opacity:1"
     d="M 171.88611,217.63428 C 227.448,270.37611 285.90708,134.48585 356.95017,168.36989 324.8789,104.01311 489.77577,69.481088 435.44181,17.904846"
     id="path877"
     sodipodi:nodetypes="ccc" />
  <text
     xml:space="preserve"
     style="font-size:28px;line-height:1.25;font-family:'DejaVu Sans';-inkscape-font-specification:'DejaVu Sans';letter-spacing:0px;word-spacing:0px;stroke-width:0.75"
     x="366.45917"
     y="192.87682"
     id="text3008"><tspan
       sodipodi:role="line"
       id="tspan3006"
       style="stroke-width:0.75"
       x="366.45917"
       y="192.87682">d</tspan></text>
</svg>

<?xml version="1.0" encoding="UTF-8"?>
<svg xmlns="http://www.w3.org/2000/svg" xmlns:xlink="http://www.w3.org/1999/xlink" width="436pt" height="373pt" viewBox="0 0 436 373" version="1.1">
<g id="surface1">
<path style=" stroke:none;fill-rule:nonzero;fill:rgb(100%,100%,100%);fill-opacity:1;" d="M 328.726562 208.117188 C 328.726562 298.605469 255.371094 371.960938 164.882812 371.960938 C 74.394531 371.960938 1.039062 298.605469 1.039062 208.117188 C 1.039062 117.628906 74.394531 44.273438 164.882812 44.273438 C 255.371094 44.273438 328.726562 117.628906 328.726562 208.117188 "/>
<path style="fill:none;stroke-width:20.7398;stroke-linecap:butt;stroke-linejoin:miter;stroke:rgb(0%,0%,0%);stroke-opacity:1;stroke-miterlimit:10;" d="M 3287.265625 1648.828125 C 3287.265625 743.945312 2553.710938 10.390625 1648.828125 10.390625 C 743.945312 10.390625 10.390625 743.945312 10.390625 1648.828125 C 10.390625 2553.710938 743.945312 3287.265625 1648.828125 3287.265625 C 2553.710938 3287.265625 3287.265625 2553.710938 3287.265625 1648.828125 Z M 3287.265625 1648.828125 " transform="matrix(0.1,0,0,-0.1,0,373)"/>
<path style=" stroke:none;fill-rule:nonzero;fill:rgb(100%,0%,0%);fill-opacity:1;" d="M 172.035156 208.117188 C 172.035156 212.070312 168.832031 215.273438 164.882812 215.273438 C 160.929688 215.273438 157.726562 212.070312 157.726562 208.117188 C 157.726562 204.167969 160.929688 200.964844 164.882812 200.964844 C 168.832031 200.964844 172.035156 204.167969 172.035156 208.117188 "/>
<path style="fill:none;stroke-width:20.7398;stroke-linecap:butt;stroke-linejoin:miter;stroke:rgb(100%,0%,0%);stroke-opacity:1;stroke-miterlimit:10;" d="M 1720.351562 1648.828125 C 1720.351562 1609.296875 1688.320312 1577.265625 1648.828125 1577.265625 C 1609.296875 1577.265625 1577.265625 1609.296875 1577.265625 1648.828125 C 1577.265625 1688.320312 1609.296875 1720.351562 1648.828125 1720.351562 C 1688.320312 1720.351562 1720.351562 1688.320312 1720.351562 1648.828125 Z M 1720.351562 1648.828125 " transform="matrix(0.1,0,0,-0.1,0,373)"/>
<path style=" stroke:none;fill-rule:nonzero;fill:rgb(100%,0%,0%);fill-opacity:1;" d="M 434.234375 8.925781 C 434.234375 12.878906 431.027344 16.078125 427.078125 16.078125 C 423.125 16.078125 419.921875 12.878906 419.921875 8.925781 C 419.921875 4.972656 423.125 1.769531 427.078125 1.769531 C 431.027344 1.769531 434.234375 4.972656 434.234375 8.925781 "/>
<path style="fill:none;stroke-width:20.7398;stroke-linecap:butt;stroke-linejoin:miter;stroke:rgb(100%,0%,0%);stroke-opacity:1;stroke-miterlimit:10;" d="M 4342.34375 3640.742188 C 4342.34375 3601.210938 4310.273438 3569.21875 4270.78125 3569.21875 C 4231.25 3569.21875 4199.21875 3601.210938 4199.21875 3640.742188 C 4199.21875 3680.273438 4231.25 3712.304688 4270.78125 3712.304688 C 4310.273438 3712.304688 4342.34375 3680.273438 4342.34375 3640.742188 Z M 4342.34375 3640.742188 " transform="matrix(0.1,0,0,-0.1,0,373)"/>
<path style="fill:none;stroke-width:20.7398;stroke-linecap:butt;stroke-linejoin:miter;stroke:rgb(70.896912%,39.988708%,0%);stroke-opacity:1;stroke-miterlimit:10;" d="M 1713.476562 1697.929688 L 4206.132812 3591.640625 " transform="matrix(0.1,0,0,-0.1,0,373)"/>
<path style="fill:none;stroke-width:20.7398;stroke-linecap:butt;stroke-linejoin:miter;stroke:rgb(0%,0%,100%);stroke-opacity:1;stroke-miterlimit:10;" d="M 1713.476562 1697.929688 L 2959.804688 2644.765625 " transform="matrix(0.1,0,0,-0.1,0,373)"/>
<path style=" stroke:none;fill-rule:nonzero;fill:rgb(0%,0%,0%);fill-opacity:1;" d="M 238.0625 132.945312 C 237.835938 132.828125 237.582031 132.742188 237.3125 132.6875 C 237.039062 132.632812 236.742188 132.601562 236.414062 132.601562 C 235.253906 132.601562 234.363281 132.976562 233.742188 133.726562 C 233.121094 134.476562 232.8125 135.550781 232.8125 136.953125 L 232.8125 143.59375 L 230.75 143.59375 L 230.75 131.058594 L 232.8125 131.058594 L 232.8125 132.945312 C 233.242188 132.191406 233.804688 131.632812 234.492188 131.265625 C 235.1875 130.898438 236.027344 130.714844 237.015625 130.714844 C 237.15625 130.714844 237.3125 130.730469 237.480469 130.757812 C 237.652344 130.785156 237.84375 130.828125 238.054688 130.886719 L 238.0625 132.945312 "/>
<path style=" stroke:none;fill-rule:nonzero;fill:rgb(0%,0%,0%);fill-opacity:1;" d="M 362.566406 39.085938 L 358.046875 45.1875 L 362.800781 51.621094 L 360.378906 51.621094 L 356.746094 46.699219 L 353.109375 51.621094 L 350.6875 51.621094 L 355.539062 45.066406 L 351.101562 39.085938 L 353.523438 39.085938 L 356.832031 43.550781 L 360.144531 39.085938 L 362.566406 39.085938 "/>
</g>
</svg>
